/* XPM */
static const char *product_logo_32_xpm[] = {
"32 32 3 1",
"a c None",
"b c #00AAAA",
"c c #00AAFF",
"aaaaaaaaaaaaaaaaaaaaaaaaaaaaaaaa",
"aaaaaaaaaaaaaaaaaaaaaaaaaaaaaaaa",
"aaaaaaaaaaaaaaaaaaaaaaaaaaaaaaaa",
"aaaaaaaaaaaaaaaaaaaaaaaaaaaaaaaa",
"aaaaaaaaaaaaaaaaaaaaaaaaaaaaaaaa",
"aaaaaaaaaaaaabbbcccaaaaaaaaaaaaa",
"aaaaaaaaaabbbbbbccccccaaaaaaaaaa",
"aaaaaaabbbbbbbbaaccccccccaaaaaaa",
"aaaaaabbbbbbaaaaaaaaccccccaaaaaa",
"aaaaaabbaaaaabbbccccaaaaccaaaaaa",
"aaaaaabbaaaabbbccccccaaaccaaaaaa",
"aaaaaabbaaabbbbaaacccaaaccaaaaaa",
"aaaaaabbaabbbaaaaaaaaaaaccaaaaaa",
"aaaaaabbaabbbaaaaaaaaaaaccaaaaaa",
"aaaaabbbbabbaaaacccccccccccaaaaa",
"aaaaabbbbabbaaaacccccccccccaaaaa",
"aaaaaabbbbbbbaaacccccccccccaaaaa",
"aaaaaaaabbbbbaaaaaacccaaaaaaaaaa",
"aaaaaaabbabbbbbaaacccaaccaaaaaaa",
"aaaaaaabbbaabbbbccccaacccaaaaaaa",
"aaaaaaabbbaaabbbcccaaacccaaaaaaa",
"aaaaaaaabbbaaaaaaaaaacccaaaaaaaa",
"aaaaaaaaabbbaaaaaaaacccaaaaaaaaa",
"aaaaaaaaaabbbbabcaccccaaaaaaaaaa",
"aaaaaaaaaaabbbbbcccccaaaaaaaaaaa",
"aaaaaaaaaaaaabbbcccaaaaaaaaaaaaa",
"aaaaaaaaaaaaaaabcaaaaaaaaaaaaaaa",
"aaaaaaaaaaaaaaaaaaaaaaaaaaaaaaaa",
"aaaaaaaaaaaaaaaaaaaaaaaaaaaaaaaa",
"aaaaaaaaaaaaaaaaaaaaaaaaaaaaaaaa",
"aaaaaaaaaaaaaaaaaaaaaaaaaaaaaaaa",
"aaaaaaaaaaaaaaaaaaaaaaaaaaaaaaaa"
};
